X:987
T:Neil Roy
R:reel
H:Scottish
Z:id:hn-reel-987
M:C|
L:1/8
K:Gdor
DGGA B2cB | AFcF dFcF | DGGA B2cB | Acfc AGGF |
DGGA B2cB | AF~F2 dFcF | DGGA B2cB | Acfc AGGF ||
Ggga b2ag | fcac gcfc | dgga b2ag | fdcA B2AF |
Ggga bgag | ~f3g agfa | g2fg dfcd | AFcA BGGF || 

